X: 234
T: Humours of Ballycullen
C:Aogán Lynch
R:Polka
M:2/4
L:1/8
K:D
"Em"B2 EG|"D"FF "Em"E2|"(Cmaj7)"B2 Ec|"D"d2 "(A)"cA|
"Em"B2 EG|"D"FG "Em"EG|"D"FA DF/A/|d2 "(A)"cA:|
"Em"Be ed/e/|fe ed|"(Cmaj7)"Be ef|"D"d2 BA|
"Em"Be ed/e/|fe ed|BA "A"cA|"D"d2 BA|
"Em"Be ed/e/|fe ed|"(Cmaj7)"Be ef|"D"d2 BA|
"D"d2 de|fg/f/ "A"ec|"D"d2 cA|"D"DF/A/ (d2|d2) "(A)"cA||


